icon-svg/myenergi.svg

<svg xmlns="http://www.w3.org/2000/svg" fill="#44739e" viewBox="0 0 24 24"><path d="M17.757 9.882a6.094 6.094 0 0 0-2.72-.291h-2.681c.935-1.224 1.925-2.408 2.823-3.659a2.406 2.406 0 0 0-2.164-3.581 2.713 2.713 0 0 0-2.185 1.375c-1.8 2.32-3.63 4.626-5.423 6.955a2.421 2.421 0 0 0 1.062 3.527 8.04 8.04 0 0 0 2.621.2h2.586c-.935 1.223-1.925 2.408-2.822 3.658a2.422 2.422 0 0 0 1.36 3.466 2.5 2.5 0 0 0 2.871-1.11c1.839-2.36 3.691-4.71 5.521-7.076a2.418 2.418 0 0 0-.849-3.464m-5.691-6.123a1.424 1.424 0 0 1 .975-.424 1.433 1.433 0 0 1 1.242 2.178c-1.047 1.368-2.12 2.717-3.177 4.078H7.5c1.523-1.942 3.029-3.9 4.566-5.832m-3.643 9.247a1.421 1.421 0 1 1-1-2.43h2.914c-.637.808-1.259 1.634-1.914 2.43m.942.413 2.221-2.843h3.081l-2.221 2.843Zm2.614 6.8a1.431 1.431 0 0 1-2.413-.676c-.217-.9.576-1.5 1.03-2.16l2.33-2.983h3.609c-1.52 1.943-3.026 3.893-4.556 5.823Zm5.962-7.719a1.566 1.566 0 0 1-1.712.919H13.7c.68-.837 1.3-1.731 2.021-2.528a1.417 1.417 0 0 1 .857-.315 1.435 1.435 0 0 1 1.363 1.924"/></svg>

<?xml version="1.0" encoding="UTF-8"?>
<svg width="24px" fill="#44739e" height="24px" viewBox="0 0 24 24" version="1.1" xmlns="http://www.w3.org/2000/svg" xmlns:xlink="http://www.w3.org/1999/xlink">
            <path d="M17.757,9.882a6.094,6.094,0,0,0-2.72-.291H12.356c.935-1.224,1.925-2.408,2.823-3.659a2.406,2.406,0,0,0-2.164-3.581h0A2.713,2.713,0,0,0,10.83,3.726c-1.8,2.32-3.63,4.626-5.423,6.955a2.421,2.421,0,0,0,1.062,3.527,8.044,8.044,0,0,0,2.621.2h2.586c-.935,1.223-1.925,2.408-2.822,3.658a2.422,2.422,0,0,0,1.36,3.466,2.5,2.5,0,0,0,2.871-1.11c1.839-2.36,3.691-4.71,5.521-7.076A2.418,2.418,0,0,0,17.757,9.882ZM12.066,3.759a1.424,1.424,0,0,1,.975-.424h0a1.433,1.433,0,0,1,1.242,2.178c-1.047,1.368-2.12,2.717-3.177,4.078H7.5C9.023,7.649,10.529,5.691,12.066,3.759ZM8.423,13.006a1.421,1.421,0,1,1-1-2.43h2.914C9.7,11.384,9.078,12.21,8.423,13.006Zm.942.413,2.221-2.843h3.081l-2.221,2.843Zm2.614,6.8a1.431,1.431,0,0,1-2.413-.676c-.217-.9.576-1.5,1.03-2.16l2.33-2.983h3.609C15.015,16.343,13.509,18.293,11.979,20.223ZM17.941,12.5a1.566,1.566,0,0,1-1.712.919H13.7c.68-.837,1.3-1.731,2.021-2.528a1.417,1.417,0,0,1,.857-.315h0A1.435,1.435,0,0,1,17.941,12.5Z"/>

</svg>
